!!!COM: Bach, Johann Sebastian
!!!OPR: Joh. Seb. Bachs vierstimmige Choralgesänge
!!!XEN: Four-part Chorales
!!!OTL: Chorale 64. Gott der Vater wohn' uns bei
!!!SCT: BWV 317
!!!SCA: Thematisch-systematisches Verzeichnis der musikalischen Werke Johann Sebastian Bach: Bach-Werke-Verzeichnis (Schmieder)
!!!YOR: Bach Gesellschaft Edition xxxix
!!!ENC: Steven Rasmussen
!!!CDT: 1685/3//-1750/7/28/
!!!OCY: Deutschland
!!!YEC: Copyright (c) 1994, 2000 Center for Computer Assisted Research in the Humanities
!!!YEM: Rights to all derivative editions reserved
!!!YEN: United States of America
**kern	**kern	**kern	**kern	**silbe
*I:[BASSO]	*I:[TENORE]	*I:[ALTO]	*I:[SOPRANO]	*I:[SOPRANO]
*>[A,A,B,B,C]	*>[A,A,B,B,C]	*>[A,A,B,B,C]	*>[A,A,B,B,C]	*
*>A	*>A	*>A	*>A	*
*clefF4	*clefGv2	*clefG2	*clefG2	*
*k[f#c#]	*k[f#c#]	*k[f#c#]	*k[f#c#]	*
*D:	*D:	*D:	*D:	*
*M4/4	*M4/4	*M4/4	*M4/4	*
=1-	=1-	=1-	=1-	=1-
4D	4d	4f#	4a	Gottmach'
4D	4d	4f#	4a	deruns
8GL	4d	4g	4b	Va-al-
8F#J	.	.	.	.
4E	4e	4g	4cc#	-ter-ler
=2	=2	=2	=2	=2
8DL	8f#L	4a	4dd	wohn'SÃ¼n-
8C#J	8eJ	.	.	.
4BB	4d	8aL	4dd	uns-den
.	.	8g#J	.	.
4AA;	4e;	4a;	4cc#;	beifrei
4E	4e	4gn	4b	undund
=3	=3	=3	=3	=3
4BB	4d	4f#	4dd	lass'helf'
4C#	8eL	4e	4a	unsuns
.	8AJ	.	.	.
4D	4A	(8e	4f#	nichtse-
.	.	4d)	.	.
4E	4G	.	4g	ver--lig
.	.	8c#	.	.
=4	=4	=4	=4	=4
8F#L	[4.A	4.d	4f#	-der-ster-
8GJ	.	.	.	.
4A	.	.	4e	.
.	16ALL]	8c#	.	.
.	16GJJ	.	.	.
2D;	2F#;	2A;	2d;	-ben,-ben.
=5:|!:	=5:|!:	=5:|!:	=5:|!:	=5:|!:
*>B	*>B	*>B	*>B	*
4D	4F#	4A	4d	Vordir
4C#	4A	8AL	4e	demuns
.	.	8eJ	.	.
4D	4A	(8e	4.f#	Teu-las-
.	.	4d)	.	.
4AA	8AL	.	.	.
.	8GJ	8c#	8e	-fel-sen
=6	=6	=6	=6	=6
8BBL	4F#	4B	4d	unsganz
8AAJ	.	.	.	.
4GG	4B	4B	4e	be-und
4FF#;	4A#;	4c#;	4f#;	-wahr'gar,
4BB	4B	8dL	4dd	halt'mit
.	.	8eJ	.	.
=7	=7	=7	=7	=7
4F#	8BL	4f#	4cc#	unsal-
.	8AJ	.	.	.
4D	4f#	8f#L	4dd	bei-len
.	.	8bJ	.	.
4C#	4e	8bL	4.ee	fe-rech-
.	.	16aL	.	.
.	.	16g#JJ	.	.
4F#	8c#L	4a	.	.
.	8dJ	.	8dd	-stem-ten
=8	=8	=8	=8	=8
4E	4.e	4a	4cc#	Glau-Chri-
4EE	.	4g#	4b	.
.	8d	.	.	.
4AA;	4c#;	4e;	4a;	-ben,-sten
8AL	4c#	4e	4a	undent-
8GJ	.	.	.	.
=9	=9	=9	=9	=9
8F#L	4d	4f#	4a	auf-flie-
8EJ	.	.	.	.
4D	4A	4f#	4dd	dich-hen
4AA	8AL	4e	4cc#	lassTeu-
.	8GJ	.	.	.
4D	4F#	8dL	4a	uns-fels
.	.	8eJ	.	.
=10	=10	=10	=10	=10
4D#	2B	4.f#	8bL	bau-Li-
.	.	.	8aJ	.
4E	.	.	4g	.
.	.	8e	.	.
4BB;	4B;	(8eL	4f#;	-en,-sten,
.	.	8d#;J)	.	.
4C#	8BL	4e	4e	ausmit
.	8AJ	.	.	.
=11	=11	=11	=11	=11
4D	4A	8eL	4f#	Her-Waf-
.	.	8dJ	.	.
4E	4G	8dL	4g	-zens--fen
.	.	8c#J	.	.
4F#	8F#L	8c#L	4.a	-grundGott's
.	8AJ	8dJ	.	.
4G	4B	8dL	.	.
.	.	8eJ	8g	ver-uns
=12	=12	=12	=12	=12
4A	4.A	8e	4f#	-trau-fri-
.	.	4d	.	.
4AA	.	.	4e	.
.	8G	8c#	.	.
2D;	2F#;	2A;	2d;	-en,-sten.
=13:|!	=13:|!	=13:|!	=13:|!	=13:|!
*>C	*>C	*>C	*>C	*
4F#	4A	4A	4d	A-
4C#	4A	8AL	4e	-men,
.	.	8eJ	.	.
4D	4A	8eL	4.f#	a-
.	.	8dJ	.	.
8AL	4A	8dL	.	.
8GJ	.	8c#J	8e	-men,
=14	=14	=14	=14	=14
(8F#	8AL	4d	4d	das
4D)	8F#J	.	.	.
.	8GL	8BL	4e	sei
8C#	8AJ	8eJ	.	.
4D;	4A;	4d;	4f#;	wahr,
8DL	8F#L	4d	4a	so
8EJ	8GJ	.	.	.
=15	=15	=15	=15	=15
8F#L	8AL	8dL	4a	sin-
8GJ	8BJ	8eJ	.	.
4A	4c#	8f#L	4a	-gen
.	.	8eJ	.	.
8BL	8dL	4d	4f#	wir
8AJ	8c#J	.	.	.
4G	4B	8dL	4g	Al-
.	.	8eJ	.	.
=16	=16	=16	=16	=16
4A	4A	(8e	4f#	-le-
.	.	4d)	.	.
4AA	8AL	.	4e	-lu-
.	8GJ	8c#	.	.
2D;	2F#;	2A;	2d;	-ja.
==|!	==|!	==|!	==|!	==|!
*-	*-	*-	*-	*-
!!!RWG: Key is interpreted using the Humdrum key tool.
!!!URL-pdf: https://s9.imslp.org/files/imglnks/usimg/6/6b/IMSLP24489-PMLP09471-CCARH_Bach_Chorales.pdf#page=44 Musedata edition
!!!URL-pdf: https://s9.imslp.org/files/imglnks/usimg/7/7a/IMSLP04155-Bach_-_BGA_253-438.pdf#page=34 	Bach-Gesellschaft Ausgabe, Band 39 (pp.175-276) Leipzig: Breitkopf und Härtel, 1892. Plate B.W. XXXIX.
!!!END: 1994/06/06
!!!EMD: Converted from MuseData to Humdrum Dec 19, 2000, by Andreas Kornstaedt using muse2kern.
!!!EED: Craig Stuart Sapp
!!!EEV: 2024/03/31
!!!filter-keyboard: satb2gs
!!!title: @{OTL} (@{SCT})
